X: 34
T: Rigadoon by Philpot
%R: jig, rigadoon
B: Stewart "A Select Collection of Airs, Jigs, Marches and Reels", ca.1784, p.16,17 #35
F: http://imslp.org/wiki/A_Select_Collection_of_Airs,_Jigs,_Marches_and_Reels_%28Various%29
Z: 2017 John Chambers <jc:trillian.mit.edu>
M: 6/8
L: 1/8
K: D
A |\
d3 Te3 | fed agf |\
efd cBe | {B}A3- A2 ::\
A |\
dAd de=c | {c}B3- B2B |\
eBe efd | {d}c3- c2 (a/g/) |\
fed Adc | {c}d3- d2 :|
